assets/images/icons/key-02.svg

<svg width="40" height="40" viewBox="0 0 40 40" fill="none" xmlns="http://www.w3.org/2000/svg">
<g clip-path="url(#clip0_379_9277)">
<path opacity="0.1" d="M0.278944 28.9522C-0.0736318 25.9401 -0.122607 22.9843 0.310078 20.3101C0.84212 17.0218 2.23117 13.3636 3.74867 10.092C6.71454 3.69799 12.0239 1.46106 18.489 0.452582C27.5008 -0.953153 39.9215 0.452613 40 11.3589C39.5479 15.2591 36.5646 26.1018 26.4939 26.9292C23.1642 27.2028 21.9185 30.5473 20.4515 34.3758C16.5911 44.4503 1.56969 39.9794 0.278944 28.9522Z" fill="#015637"/>
<g clip-path="url(#clip1_379_9277)">
<path fill-rule="evenodd" clip-rule="evenodd" d="M13.6808 5.30021C12.7184 5.01147 11.7497 5.73215 11.7497 6.73694V34.9789H16.9997V29.7289C16.9997 28.9005 17.6713 28.2289 18.4997 28.2289H21.4997C22.3282 28.2289 22.9997 28.9005 22.9997 29.7289V34.9789H28.2497V10.7869C28.2497 10.1245 27.8152 9.54054 27.1807 9.35021L13.6808 5.30021ZM16.9997 13.9789C16.5855 13.9789 16.2497 14.3147 16.2497 14.7289V16.2289C16.2497 16.6431 16.5855 16.9789 16.9997 16.9789H18.4997C18.9139 16.9789 19.2497 16.6431 19.2497 16.2289V14.7289C19.2497 14.3147 18.9139 13.9789 18.4997 13.9789H16.9997ZM16.2497 19.2289C16.2497 18.8148 16.5855 18.4789 16.9997 18.4789H18.4997C18.9139 18.4789 19.2497 18.8148 19.2497 19.2289V20.7289C19.2497 21.1431 18.9139 21.4789 18.4997 21.4789H16.9997C16.5855 21.4789 16.2497 21.1431 16.2497 20.7289V19.2289ZM16.9997 22.9789C16.5855 22.9789 16.2497 23.3148 16.2497 23.7289V25.2289C16.2497 25.6431 16.5855 25.9789 16.9997 25.9789H18.4997C18.9139 25.9789 19.2497 25.6431 19.2497 25.2289V23.7289C19.2497 23.3148 18.9139 22.9789 18.4997 22.9789H16.9997ZM20.7497 14.7289C20.7497 14.3147 21.0856 13.9789 21.4997 13.9789H22.9997C23.4139 13.9789 23.7497 14.3147 23.7497 14.7289V16.2289C23.7497 16.6431 23.4139 16.9789 22.9997 16.9789H21.4997C21.0856 16.9789 20.7497 16.6431 20.7497 16.2289V14.7289ZM21.4997 18.4789C21.0856 18.4789 20.7497 18.8148 20.7497 19.2289V20.7289C20.7497 21.1431 21.0856 21.4789 21.4997 21.4789H22.9997C23.4139 21.4789 23.7497 21.1431 23.7497 20.7289V19.2289C23.7497 18.8148 23.4139 18.4789 22.9997 18.4789H21.4997ZM20.7497 23.7289C20.7497 23.3148 21.0856 22.9789 21.4997 22.9789H22.9997C23.4139 22.9789 23.7497 23.3148 23.7497 23.7289V25.2289C23.7497 25.6431 23.4139 25.9789 22.9997 25.9789H21.4997C21.0856 25.9789 20.7497 25.6431 20.7497 25.2289V23.7289Z" fill="#7FB51F"/>
<path d="M10.2498 34.9789V9.47888H7.99979C7.17137 9.47888 6.49979 10.1505 6.49979 10.9789V33.4789H5.74979C5.33558 33.4789 4.99979 33.8147 4.99979 34.2289C4.99979 34.643 5.33558 34.9789 5.74979 34.9789H10.2498Z" fill="#7FB51F"/>
<path d="M34.2498 34.9791H29.7498V15.151L32.744 16.862C33.2114 17.1291 33.4998 17.6261 33.4998 18.1644V33.4791H34.2498C34.664 33.4791 34.9998 33.815 34.9998 34.2291C34.9998 34.6433 34.664 34.9791 34.2498 34.9791Z" fill="#7FB51F"/>
<path d="M21.4998 34.9788V29.7288H18.4998V34.9788H21.4998Z" fill="#7FB51F"/>
</g>
</g>
<defs>
<clipPath id="clip0_379_9277">
<rect width="40" height="40" fill="white"/>
</clipPath>
<clipPath id="clip1_379_9277">
<rect width="30" height="30" fill="white" transform="translate(4.99997 5)"/>
</clipPath>
</defs>
</svg>

<svg xmlns="http://www.w3.org/2000/svg" width="40" height="40" fill="none"><g clip-path="url(#a)"><path fill="#015637" d="M.279 28.952c-.353-3.012-.402-5.968.031-8.642.532-3.288 1.921-6.946 3.439-10.218 2.966-6.394 8.275-8.63 14.74-9.64C27.501-.952 39.922.453 40 11.36c-.452 3.9-3.435 14.743-13.506 15.57-3.33.274-4.575 3.618-6.042 7.447C16.592 44.45 1.57 39.979.279 28.952" opacity=".1"/><g fill="#7FB51F" clip-path="url(#b)"><path fill-rule="evenodd" d="M13.68 5.3a1.5 1.5 0 0 0-1.93 1.437v28.242H17v-5.25a1.5 1.5 0 0 1 1.5-1.5h3a1.5 1.5 0 0 1 1.5 1.5v5.25h5.25V10.787a1.5 1.5 0 0 0-1.07-1.437zM17 13.98a.75.75 0 0 0-.75.75v1.5c0 .414.335.75.75.75h1.5a.75.75 0 0 0 .75-.75v-1.5a.75.75 0 0 0-.75-.75zm-.75 5.25a.75.75 0 0 1 .75-.75h1.5a.75.75 0 0 1 .75.75v1.5a.75.75 0 0 1-.75.75H17a.75.75 0 0 1-.75-.75zm.75 3.75a.75.75 0 0 0-.75.75v1.5c0 .414.335.75.75.75h1.5a.75.75 0 0 0 .75-.75v-1.5a.75.75 0 0 0-.75-.75zm3.75-8.25a.75.75 0 0 1 .75-.75H23a.75.75 0 0 1 .75.75v1.5a.75.75 0 0 1-.75.75h-1.5a.75.75 0 0 1-.75-.75zm.75 3.75a.75.75 0 0 0-.75.75v1.5c0 .414.336.75.75.75H23a.75.75 0 0 0 .75-.75v-1.5a.75.75 0 0 0-.75-.75zm-.75 5.25a.75.75 0 0 1 .75-.75H23a.75.75 0 0 1 .75.75v1.5a.75.75 0 0 1-.75.75h-1.5a.75.75 0 0 1-.75-.75z" clip-rule="evenodd"/><path d="M10.25 34.979v-25.5H8a1.5 1.5 0 0 0-1.5 1.5v22.5h-.75a.75.75 0 0 0 0 1.5zm24 .001h-4.5V15.15l2.994 1.711a1.5 1.5 0 0 1 .756 1.302V33.48h.75a.75.75 0 0 1 0 1.5m-12.75-.001v-5.25h-3v5.25z"/></g></g><defs><clipPath id="a"><path fill="#fff" d="M0 0h40v40H0z"/></clipPath><clipPath id="b"><path fill="#fff" d="M5 5h30v30H5z"/></clipPath></defs></svg>
